app/images/apps.svg

<svg xmlns="http://www.w3.org/2000/svg" width="100" height="100"><path fill="#EBEDEE" d="M4 0h92c2.209 0 4 1.791 4 4v92c0 2.209-1.791 4-4 4h-92c-2.209 0-4-1.791-4-4v-92c0-2.209 1.791-4 4-4z"/><path fill="#fff" d="M10 20h80v70h-80v-70z"/><path fill="#E74C3C" d="M13 7c1.657 0 3 1.344 3 3 0 1.657-1.343 3-3 3s-3-1.343-3-3c0-1.656 1.343-3 3-3z"/><path fill="#F39C12" d="M23 7c1.657 0 3 1.344 3 3 0 1.657-1.343 3-3 3s-3-1.343-3-3c0-1.656 1.343-3 3-3z"/><path fill="#27AE60" d="M33 7c1.657 0 3 1.344 3 3 0 1.657-1.343 3-3 3s-3-1.343-3-3c0-1.656 1.343-3 3-3z"/><path fill="#fff" d="M45 7h45v6h-45v-6z"/><path fill="#BDC3C7" d="M20 45v5h25v-5h-25zm0 15h25v-5h-25v5zm0 10h25v-5h-25v5zm0 10h25v-5h-25v5z"/><path fill="#27AE60" d="M20 30h60v10h-60v-10z"/><path fill="#BDC3C7" d="M50 45v15h30v-15h-30zm0 35h30v-15h-30v15z"/></svg>

<?xml version="1.0" encoding="UTF-8" standalone="no"?>
<svg width="100px" height="100px" viewBox="0 0 100 100" version="1.1" xmlns="http://www.w3.org/2000/svg" xmlns:xlink="http://www.w3.org/1999/xlink" xmlns:sketch="http://www.bohemiancoding.com/sketch/ns">
    <!-- Generator: Sketch 3.1.1 (8761) - http://www.bohemiancoding.com/sketch -->
    <title>apps</title>
    <desc>Created with Sketch.</desc>
    <defs></defs>
    <g id="Page-1" stroke="none" stroke-width="1" fill="none" fill-rule="evenodd" sketch:type="MSPage">
        <g id="apps" sketch:type="MSLayerGroup">
            <path d="M4,0 L96,0 C98.209,0 100,1.791 100,4 L100,96 C100,98.209 98.209,100 96,100 L4,100 C1.791,100 0,98.209 0,96 L0,4 C0,1.791 1.791,0 4,0 L4,0 Z" id="Shape" fill="#EBEDEE" sketch:type="MSShapeGroup"></path>
            <path d="M10,20 L90,20 L90,90 L10,90 L10,20 L10,20 Z" id="Shape" fill="#FFFFFF" sketch:type="MSShapeGroup"></path>
            <path d="M13,7 C14.657,7 16,8.344 16,10 C16,11.657 14.657,13 13,13 C11.343,13 10,11.657 10,10 C10,8.344 11.343,7 13,7 L13,7 Z" id="Shape" fill="#E74C3C" sketch:type="MSShapeGroup"></path>
            <path d="M23,7 C24.657,7 26,8.344 26,10 C26,11.657 24.657,13 23,13 C21.343,13 20,11.657 20,10 C20,8.344 21.343,7 23,7 L23,7 Z" id="Shape" fill="#F39C12" sketch:type="MSShapeGroup"></path>
            <path d="M33,7 C34.657,7 36,8.344 36,10 C36,11.657 34.657,13 33,13 C31.343,13 30,11.657 30,10 C30,8.344 31.343,7 33,7 L33,7 Z" id="Shape" fill="#27AE60" sketch:type="MSShapeGroup"></path>
            <path d="M45,7 L90,7 L90,13 L45,13 L45,7 L45,7 Z" id="Shape" fill="#FFFFFF" sketch:type="MSShapeGroup"></path>
            <path d="M20,45 L20,50 L45,50 L45,45 L20,45 L20,45 Z M20,60 L45,60 L45,55 L20,55 L20,60 L20,60 Z M20,70 L45,70 L45,65 L20,65 L20,70 L20,70 Z M20,80 L45,80 L45,75 L20,75 L20,80 L20,80 Z" id="Shape" fill="#BDC3C7" sketch:type="MSShapeGroup"></path>
            <path d="M20,30 L80,30 L80,40 L20,40 L20,30 L20,30 Z" id="Shape" fill="#3498DB" sketch:type="MSShapeGroup"></path>
            <path d="M50,45 L50,60 L80,60 L80,45 L50,45 L50,45 Z M50,80 L80,80 L80,65 L50,65 L50,80 L50,80 Z" id="Shape" fill="#BDC3C7" sketch:type="MSShapeGroup"></path>
        </g>
    </g>
</svg>
